%
(Header)
(Generated by gcodetools from Inkscape.)
(Using default header. To add your own header create file "header" in the output dir.)

(Header end.)
G21 (All units in mm)

(Start cutting path id: path4202)
(Change tool to Default tool)

E4P000
G00 X 0.0597 Y 35.1540

E4P1
G01 X 0.0597 Y 0.0173 Z 0.0000 F 400.0000
E4P000

(End cutting path id: path4202)


(Start cutting path id: path4196)
(Change tool to Default tool)

E4P000
G00 X 0.0597 Y 0.0173

E4P1
G01 X 60.0037 Y 0.0173 Z 0.0000 F 400.0000
E4P000

(End cutting path id: path4196)


(Start cutting path id: path4198)
(Change tool to Default tool)

E4P000
G00 X 60.0037 Y 0.0173

E4P1
G01 X 60.0037 Y 35.1540 Z 0.0000 F 400.0000
E4P000

(End cutting path id: path4198)


(Start cutting path id: path4200)
(Change tool to Default tool)

E4P000
G00 X 60.0037 Y 35.1540

E4P1
G01 X 0.0597 Y 35.1540 Z 0.0000 F 400.0000
E4P000

(End cutting path id: path4200)


(Start cutting path id: path4172)
(Change tool to Default tool)

E4P000
G00 X 9.3942 Y 31.4286

E4P1
G01 X 11.0029 Y 31.4286 Z 0.0000 F 400.0000
G01 X 11.0029 Y 30.1163 Z 0.0000
G01 X 9.3942 Y 30.1163 Z 0.0000
G01 X 9.3942 Y 31.4286 Z 0.0000
G01 X 9.3942 Y 31.4286 Z 0.0000
E4P000

(End cutting path id: path4172)


(Start cutting path id: path4170)
(Change tool to Default tool)

E4P000
G00 X 9.3942 Y 29.5236

E4P1
G01 X 11.0029 Y 29.5236 Z 0.0000 F 400.0000
G01 X 11.0029 Y 28.2113 Z 0.0000
G01 X 9.3942 Y 28.2113 Z 0.0000
G01 X 9.3942 Y 29.5236 Z 0.0000
G01 X 9.3942 Y 29.5236 Z 0.0000
E4P000

(End cutting path id: path4170)


(Start cutting path id: path4180)
(Change tool to Default tool)

E4P000
G00 X 8.5899 Y 26.2005

E4P1
G01 X 9.9022 Y 26.2005 Z 0.0000 F 400.0000
G01 X 9.9022 Y 24.5918 Z 0.0000
G01 X 8.5899 Y 24.5918 Z 0.0000
G01 X 8.5899 Y 26.2005 Z 0.0000
G01 X 8.5899 Y 26.2005 Z 0.0000
E4P000

(End cutting path id: path4180)


(Start cutting path id: path4178)
(Change tool to Default tool)

E4P000
G00 X 10.4949 Y 26.2005

E4P1
G01 X 11.8072 Y 26.2005 Z 0.0000 F 400.0000
G01 X 11.8072 Y 24.5918 Z 0.0000
G01 X 10.4949 Y 24.5918 Z 0.0000
G01 X 10.4949 Y 26.2005 Z 0.0000
G01 X 10.4949 Y 26.2005 Z 0.0000
E4P000

(End cutting path id: path4178)


(Start cutting path id: path4174)
(Change tool to Default tool)

E4P000
G00 X 10.4949 Y 23.6605

E4P1
G01 X 11.8072 Y 23.6605 Z 0.0000 F 400.0000
G01 X 11.8072 Y 22.0518 Z 0.0000
G01 X 10.4949 Y 22.0518 Z 0.0000
G01 X 10.4949 Y 23.6605 Z 0.0000
G01 X 10.4949 Y 23.6605 Z 0.0000
E4P000

(End cutting path id: path4174)


(Start cutting path id: path4176)
(Change tool to Default tool)

E4P000
G00 X 8.5899 Y 23.6605

E4P1
G01 X 9.9022 Y 23.6605 Z 0.0000 F 400.0000
G01 X 9.9022 Y 22.0518 Z 0.0000
G01 X 8.5899 Y 22.0518 Z 0.0000
G01 X 8.5899 Y 23.6605 Z 0.0000
G01 X 8.5899 Y 23.6605 Z 0.0000
E4P000

(End cutting path id: path4176)


(Start cutting path id: path4090)
(Change tool to Default tool)

E4P000
G00 X 13.7969 Y 23.1525

E4P1
G01 X 14.9822 Y 23.1525 Z 0.0000 F 400.0000
G01 X 14.9822 Y 22.5598 Z 0.0000
G01 X 13.7969 Y 22.5598 Z 0.0000
G01 X 13.7969 Y 23.1525 Z 0.0000
G01 X 13.7969 Y 23.1525 Z 0.0000
E4P000

(End cutting path id: path4090)


(Start cutting path id: path4088)
(Change tool to Default tool)

E4P000
G00 X 13.7969 Y 24.4225

E4P1
G01 X 14.9822 Y 24.4225 Z 0.0000 F 400.0000
G01 X 14.9822 Y 23.8298 Z 0.0000
G01 X 13.7969 Y 23.8298 Z 0.0000
G01 X 13.7969 Y 24.4225 Z 0.0000
G01 X 13.7969 Y 24.4225 Z 0.0000
E4P000

(End cutting path id: path4088)


(Start cutting path id: path4086)
(Change tool to Default tool)

E4P000
G00 X 13.7969 Y 25.6925

E4P1
G01 X 14.9822 Y 25.6925 Z 0.0000 F 400.0000
G01 X 14.9822 Y 25.0998 Z 0.0000
G01 X 13.7969 Y 25.0998 Z 0.0000
G01 X 13.7969 Y 25.6925 Z 0.0000
G01 X 13.7969 Y 25.6925 Z 0.0000
E4P000

(End cutting path id: path4086)


(Start cutting path id: path4084)
(Change tool to Default tool)

E4P000
G00 X 13.7969 Y 26.9413

E4P1
G01 X 14.9822 Y 26.9413 Z 0.0000 F 400.0000
G01 X 14.9822 Y 26.3486 Z 0.0000
G01 X 13.7969 Y 26.3486 Z 0.0000
G01 X 13.7969 Y 26.9413 Z 0.0000
G01 X 13.7969 Y 26.9413 Z 0.0000
E4P000

(End cutting path id: path4084)


(Start cutting path id: path4082)
(Change tool to Default tool)

E4P000
G00 X 13.7969 Y 28.2113

E4P1
G01 X 14.9822 Y 28.2113 Z 0.0000 F 400.0000
G01 X 14.9822 Y 27.6186 Z 0.0000
G01 X 13.7969 Y 27.6186 Z 0.0000
G01 X 13.7969 Y 28.2113 Z 0.0000
G01 X 13.7969 Y 28.2113 Z 0.0000
E4P000

(End cutting path id: path4082)


(Start cutting path id: path4080)
(Change tool to Default tool)

E4P000
G00 X 13.7969 Y 29.4813

E4P1
G01 X 14.9822 Y 29.4813 Z 0.0000 F 400.0000
G01 X 14.9822 Y 28.8886 Z 0.0000
G01 X 13.7969 Y 28.8886 Z 0.0000
G01 X 13.7969 Y 29.4813 Z 0.0000
G01 X 13.7969 Y 29.4813 Z 0.0000
E4P000

(End cutting path id: path4080)


(Start cutting path id: path4078)
(Change tool to Default tool)

E4P000
G00 X 13.7969 Y 30.7513

E4P1
G01 X 14.9822 Y 30.7513 Z 0.0000 F 400.0000
G01 X 14.9822 Y 30.1586 Z 0.0000
G01 X 13.7969 Y 30.1586 Z 0.0000
G01 X 13.7969 Y 30.7513 Z 0.0000
G01 X 13.7969 Y 30.7513 Z 0.0000
E4P000

(End cutting path id: path4078)


(Start cutting path id: path4104)
(Change tool to Default tool)

E4P000
G00 X 19.3849 Y 30.7513

E4P1
G01 X 20.5702 Y 30.7513 Z 0.0000 F 400.0000
G01 X 20.5702 Y 30.1586 Z 0.0000
G01 X 19.3849 Y 30.1586 Z 0.0000
G01 X 19.3849 Y 30.7513 Z 0.0000
G01 X 19.3849 Y 30.7513 Z 0.0000
E4P000

(End cutting path id: path4104)


(Start cutting path id: path4102)
(Change tool to Default tool)

E4P000
G00 X 19.3849 Y 29.4813

E4P1
G01 X 20.5702 Y 29.4813 Z 0.0000 F 400.0000
G01 X 20.5702 Y 28.8886 Z 0.0000
G01 X 19.3849 Y 28.8886 Z 0.0000
G01 X 19.3849 Y 29.4813 Z 0.0000
G01 X 19.3849 Y 29.4813 Z 0.0000
E4P000

(End cutting path id: path4102)


(Start cutting path id: path4100)
(Change tool to Default tool)

E4P000
G00 X 19.3849 Y 28.2113

E4P1
G01 X 20.5702 Y 28.2113 Z 0.0000 F 400.0000
G01 X 20.5702 Y 27.6186 Z 0.0000
G01 X 19.3849 Y 27.6186 Z 0.0000
G01 X 19.3849 Y 28.2113 Z 0.0000
G01 X 19.3849 Y 28.2113 Z 0.0000
E4P000

(End cutting path id: path4100)


(Start cutting path id: path4098)
(Change tool to Default tool)

E4P000
G00 X 19.3849 Y 26.9413

E4P1
G01 X 20.5702 Y 26.9413 Z 0.0000 F 400.0000
G01 X 20.5702 Y 26.3486 Z 0.0000
G01 X 19.3849 Y 26.3486 Z 0.0000
G01 X 19.3849 Y 26.9413 Z 0.0000
G01 X 19.3849 Y 26.9413 Z 0.0000
E4P000

(End cutting path id: path4098)


(Start cutting path id: path4096)
(Change tool to Default tool)

E4P000
G00 X 19.3849 Y 25.6925

E4P1
G01 X 20.5702 Y 25.6925 Z 0.0000 F 400.0000
G01 X 20.5702 Y 25.0998 Z 0.0000
G01 X 19.3849 Y 25.0998 Z 0.0000
G01 X 19.3849 Y 25.6925 Z 0.0000
G01 X 19.3849 Y 25.6925 Z 0.0000
E4P000

(End cutting path id: path4096)


(Start cutting path id: path4094)
(Change tool to Default tool)

E4P000
G00 X 19.3849 Y 24.4225

E4P1
G01 X 20.5702 Y 24.4225 Z 0.0000 F 400.0000
G01 X 20.5702 Y 23.8298 Z 0.0000
G01 X 19.3849 Y 23.8298 Z 0.0000
G01 X 19.3849 Y 24.4225 Z 0.0000
G01 X 19.3849 Y 24.4225 Z 0.0000
E4P000

(End cutting path id: path4094)


(Start cutting path id: path4092)
(Change tool to Default tool)

E4P000
G00 X 19.3849 Y 23.1525

E4P1
G01 X 20.5702 Y 23.1525 Z 0.0000 F 400.0000
G01 X 20.5702 Y 22.5598 Z 0.0000
G01 X 19.3849 Y 22.5598 Z 0.0000
G01 X 19.3849 Y 23.1525 Z 0.0000
G01 X 19.3849 Y 23.1525 Z 0.0000
E4P000

(End cutting path id: path4092)


(Start cutting path id: path4194)
(Change tool to Default tool)

E4P000
G00 X 20.8877 Y 31.4286

E4P1
G01 X 22.3694 Y 31.4286 Z 0.0000 F 400.0000
G01 X 22.3694 Y 30.1163 Z 0.0000
G01 X 20.8877 Y 30.1163 Z 0.0000
G01 X 20.8877 Y 31.4286 Z 0.0000
G01 X 20.8877 Y 31.4286 Z 0.0000
E4P000

(End cutting path id: path4194)


(Start cutting path id: path4192)
(Change tool to Default tool)

E4P000
G00 X 20.8877 Y 33.3336

E4P1
G01 X 22.3694 Y 33.3336 Z 0.0000 F 400.0000
G01 X 22.3694 Y 32.0213 Z 0.0000
G01 X 20.8877 Y 32.0213 Z 0.0000
G01 X 20.8877 Y 33.3336 Z 0.0000
G01 X 20.8877 Y 33.3336 Z 0.0000
E4P000

(End cutting path id: path4192)


(Start cutting path id: path4182)
(Change tool to Default tool)

E4P000
G00 X 7.3199 Y 16.6755

E4P1
G01 X 8.6322 Y 16.6755 Z 0.0000 F 400.0000
G01 X 8.6322 Y 15.0668 Z 0.0000
G01 X 7.3199 Y 15.0668 Z 0.0000
G01 X 7.3199 Y 16.6755 Z 0.0000
G01 X 7.3199 Y 16.6755 Z 0.0000
E4P000

(End cutting path id: path4182)


(Start cutting path id: path4184)
(Change tool to Default tool)

E4P000
G00 X 5.4360 Y 16.6755

E4P1
G01 X 6.7484 Y 16.6755 Z 0.0000 F 400.0000
G01 X 6.7484 Y 15.0668 Z 0.0000
G01 X 5.4360 Y 15.0668 Z 0.0000
G01 X 5.4360 Y 16.6755 Z 0.0000
G01 X 5.4360 Y 16.6755 Z 0.0000
E4P000

(End cutting path id: path4184)


(Start cutting path id: path4188)
(Change tool to Default tool)

E4P000
G00 X 5.5842 Y 13.8603

E4P1
G01 X 6.6002 Y 13.8603 Z 0.0000 F 400.0000
G01 X 6.6002 Y 12.4633 Z 0.0000
G01 X 5.5842 Y 12.4633 Z 0.0000
G01 X 5.5842 Y 13.8603 Z 0.0000
G01 X 5.5842 Y 13.8603 Z 0.0000
E4P000

(End cutting path id: path4188)


(Start cutting path id: path4190)
(Change tool to Default tool)

E4P000
G00 X 7.4680 Y 13.8603

E4P1
G01 X 8.4840 Y 13.8603 Z 0.0000 F 400.0000
G01 X 8.4840 Y 12.4633 Z 0.0000
G01 X 7.4680 Y 12.4633 Z 0.0000
G01 X 7.4680 Y 13.8603 Z 0.0000
G01 X 7.4680 Y 13.8603 Z 0.0000
E4P000

(End cutting path id: path4190)


(Start cutting path id: path4186)
(Change tool to Default tool)

E4P000
G00 X 6.5155 Y 11.6590

E4P1
G01 X 7.5315 Y 11.6590 Z 0.0000 F 400.0000
G01 X 7.5315 Y 10.2620 Z 0.0000
G01 X 6.5155 Y 10.2620 Z 0.0000
G01 X 6.5155 Y 11.6590 Z 0.0000
G01 X 6.5155 Y 11.6590 Z 0.0000
E4P000

(End cutting path id: path4186)


(Start cutting path id: path4136)
(Change tool to Default tool)

E4P000
G00 X 26.4122 Y 9.1190

E4P1
G01 X 27.0049 Y 9.1190 Z 0.0000 F 400.0000
G01 X 27.0049 Y 7.9336 Z 0.0000
G01 X 26.4122 Y 7.9336 Z 0.0000
G01 X 26.4122 Y 9.1190 Z 0.0000
G01 X 26.4122 Y 9.1190 Z 0.0000
E4P000

(End cutting path id: path4136)


(Start cutting path id: path4134)
(Change tool to Default tool)

E4P000
G00 X 27.6822 Y 9.1190

E4P1
G01 X 28.2749 Y 9.1190 Z 0.0000 F 400.0000
G01 X 28.2749 Y 7.9336 Z 0.0000
G01 X 27.6822 Y 7.9336 Z 0.0000
G01 X 27.6822 Y 9.1190 Z 0.0000
G01 X 27.6822 Y 9.1190 Z 0.0000
E4P000

(End cutting path id: path4134)


(Start cutting path id: path4132)
(Change tool to Default tool)

E4P000
G00 X 28.9522 Y 9.1190

E4P1
G01 X 29.5449 Y 9.1190 Z 0.0000 F 400.0000
G01 X 29.5449 Y 7.9336 Z 0.0000
G01 X 28.9522 Y 7.9336 Z 0.0000
G01 X 28.9522 Y 9.1190 Z 0.0000
G01 X 28.9522 Y 9.1190 Z 0.0000
E4P000

(End cutting path id: path4132)


(Start cutting path id: path4130)
(Change tool to Default tool)

E4P000
G00 X 30.2222 Y 9.1190

E4P1
G01 X 30.8149 Y 9.1190 Z 0.0000 F 400.0000
G01 X 30.8149 Y 7.9336 Z 0.0000
G01 X 30.2222 Y 7.9336 Z 0.0000
G01 X 30.2222 Y 9.1190 Z 0.0000
G01 X 30.2222 Y 9.1190 Z 0.0000
E4P000

(End cutting path id: path4130)


(Start cutting path id: path4128)
(Change tool to Default tool)

E4P000
G00 X 31.4922 Y 9.1190

E4P1
G01 X 32.0849 Y 9.1190 Z 0.0000 F 400.0000
G01 X 32.0849 Y 7.9336 Z 0.0000
G01 X 31.4922 Y 7.9336 Z 0.0000
G01 X 31.4922 Y 9.1190 Z 0.0000
G01 X 31.4922 Y 9.1190 Z 0.0000
E4P000

(End cutting path id: path4128)


(Start cutting path id: path4126)
(Change tool to Default tool)

E4P000
G00 X 32.7410 Y 9.1190

E4P1
G01 X 33.3337 Y 9.1190 Z 0.0000 F 400.0000
G01 X 33.3337 Y 7.9336 Z 0.0000
G01 X 32.7410 Y 7.9336 Z 0.0000
G01 X 32.7410 Y 9.1190 Z 0.0000
G01 X 32.7410 Y 9.1190 Z 0.0000
E4P000

(End cutting path id: path4126)


(Start cutting path id: path4124)
(Change tool to Default tool)

E4P000
G00 X 34.0110 Y 9.1190

E4P1
G01 X 34.6037 Y 9.1190 Z 0.0000 F 400.0000
G01 X 34.6037 Y 7.9336 Z 0.0000
G01 X 34.0110 Y 7.9336 Z 0.0000
G01 X 34.0110 Y 9.1190 Z 0.0000
G01 X 34.0110 Y 9.1190 Z 0.0000
E4P000

(End cutting path id: path4124)


(Start cutting path id: path4122)
(Change tool to Default tool)

E4P000
G00 X 35.2810 Y 9.1190

E4P1
G01 X 35.8737 Y 9.1190 Z 0.0000 F 400.0000
G01 X 35.8737 Y 7.9336 Z 0.0000
G01 X 35.2810 Y 7.9336 Z 0.0000
G01 X 35.2810 Y 9.1190 Z 0.0000
G01 X 35.2810 Y 9.1190 Z 0.0000
E4P000

(End cutting path id: path4122)


(Start cutting path id: path4120)
(Change tool to Default tool)

E4P000
G00 X 35.2810 Y 3.5310

E4P1
G01 X 35.8737 Y 3.5310 Z 0.0000 F 400.0000
G01 X 35.8737 Y 2.3456 Z 0.0000
G01 X 35.2810 Y 2.3456 Z 0.0000
G01 X 35.2810 Y 3.5310 Z 0.0000
G01 X 35.2810 Y 3.5310 Z 0.0000
E4P000

(End cutting path id: path4120)


(Start cutting path id: path4118)
(Change tool to Default tool)

E4P000
G00 X 34.0110 Y 3.5310

E4P1
G01 X 34.6037 Y 3.5310 Z 0.0000 F 400.0000
G01 X 34.6037 Y 2.3456 Z 0.0000
G01 X 34.0110 Y 2.3456 Z 0.0000
G01 X 34.0110 Y 3.5310 Z 0.0000
G01 X 34.0110 Y 3.5310 Z 0.0000
E4P000

(End cutting path id: path4118)


(Start cutting path id: path4116)
(Change tool to Default tool)

E4P000
G00 X 32.7410 Y 3.5310

E4P1
G01 X 33.3337 Y 3.5310 Z 0.0000 F 400.0000
G01 X 33.3337 Y 2.3456 Z 0.0000
G01 X 32.7410 Y 2.3456 Z 0.0000
G01 X 32.7410 Y 3.5310 Z 0.0000
G01 X 32.7410 Y 3.5310 Z 0.0000
E4P000

(End cutting path id: path4116)


(Start cutting path id: path4114)
(Change tool to Default tool)

E4P000
G00 X 31.4922 Y 3.5310

E4P1
G01 X 32.0849 Y 3.5310 Z 0.0000 F 400.0000
G01 X 32.0849 Y 2.3456 Z 0.0000
G01 X 31.4922 Y 2.3456 Z 0.0000
G01 X 31.4922 Y 3.5310 Z 0.0000
G01 X 31.4922 Y 3.5310 Z 0.0000
E4P000

(End cutting path id: path4114)


(Start cutting path id: path4112)
(Change tool to Default tool)

E4P000
G00 X 30.2222 Y 3.5310

E4P1
G01 X 30.8149 Y 3.5310 Z 0.0000 F 400.0000
G01 X 30.8149 Y 2.3456 Z 0.0000
G01 X 30.2222 Y 2.3456 Z 0.0000
G01 X 30.2222 Y 3.5310 Z 0.0000
G01 X 30.2222 Y 3.5310 Z 0.0000
E4P000

(End cutting path id: path4112)


(Start cutting path id: path4110)
(Change tool to Default tool)

E4P000
G00 X 28.9522 Y 3.5310

E4P1
G01 X 29.5449 Y 3.5310 Z 0.0000 F 400.0000
G01 X 29.5449 Y 2.3456 Z 0.0000
G01 X 28.9522 Y 2.3456 Z 0.0000
G01 X 28.9522 Y 3.5310 Z 0.0000
G01 X 28.9522 Y 3.5310 Z 0.0000
E4P000

(End cutting path id: path4110)


(Start cutting path id: path4108)
(Change tool to Default tool)

E4P000
G00 X 27.6822 Y 3.5310

E4P1
G01 X 28.2749 Y 3.5310 Z 0.0000 F 400.0000
G01 X 28.2749 Y 2.3456 Z 0.0000
G01 X 27.6822 Y 2.3456 Z 0.0000
G01 X 27.6822 Y 3.5310 Z 0.0000
G01 X 27.6822 Y 3.5310 Z 0.0000
E4P000

(End cutting path id: path4108)


(Start cutting path id: path4106)
(Change tool to Default tool)

E4P000
G00 X 26.4122 Y 3.5310

E4P1
G01 X 27.0049 Y 3.5310 Z 0.0000 F 400.0000
G01 X 27.0049 Y 2.3456 Z 0.0000
G01 X 26.4122 Y 2.3456 Z 0.0000
G01 X 26.4122 Y 3.5310 Z 0.0000
G01 X 26.4122 Y 3.5310 Z 0.0000
E4P000

(End cutting path id: path4106)


(Start cutting path id: path4138)
(Change tool to Default tool)

E4P000
G00 X 45.4410 Y 3.5310

E4P1
G01 X 46.0337 Y 3.5310 Z 0.0000 F 400.0000
G01 X 46.0337 Y 2.3456 Z 0.0000
G01 X 45.4410 Y 2.3456 Z 0.0000
G01 X 45.4410 Y 3.5310 Z 0.0000
G01 X 45.4410 Y 3.5310 Z 0.0000
E4P000

(End cutting path id: path4138)


(Start cutting path id: path4140)
(Change tool to Default tool)

E4P000
G00 X 46.7110 Y 3.5310

E4P1
G01 X 47.3037 Y 3.5310 Z 0.0000 F 400.0000
G01 X 47.3037 Y 2.3456 Z 0.0000
G01 X 46.7110 Y 2.3456 Z 0.0000
G01 X 46.7110 Y 3.5310 Z 0.0000
G01 X 46.7110 Y 3.5310 Z 0.0000
E4P000

(End cutting path id: path4140)


(Start cutting path id: path4142)
(Change tool to Default tool)

E4P000
G00 X 47.9810 Y 3.5310

E4P1
G01 X 48.5737 Y 3.5310 Z 0.0000 F 400.0000
G01 X 48.5737 Y 2.3456 Z 0.0000
G01 X 47.9810 Y 2.3456 Z 0.0000
G01 X 47.9810 Y 3.5310 Z 0.0000
G01 X 47.9810 Y 3.5310 Z 0.0000
E4P000

(End cutting path id: path4142)


(Start cutting path id: path4144)
(Change tool to Default tool)

E4P000
G00 X 49.2510 Y 3.5310

E4P1
G01 X 49.8437 Y 3.5310 Z 0.0000 F 400.0000
G01 X 49.8437 Y 2.3456 Z 0.0000
G01 X 49.2510 Y 2.3456 Z 0.0000
G01 X 49.2510 Y 3.5310 Z 0.0000
G01 X 49.2510 Y 3.5310 Z 0.0000
E4P000

(End cutting path id: path4144)


(Start cutting path id: path4146)
(Change tool to Default tool)

E4P000
G00 X 50.5210 Y 3.5310

E4P1
G01 X 51.1137 Y 3.5310 Z 0.0000 F 400.0000
G01 X 51.1137 Y 2.3456 Z 0.0000
G01 X 50.5210 Y 2.3456 Z 0.0000
G01 X 50.5210 Y 3.5310 Z 0.0000
G01 X 50.5210 Y 3.5310 Z 0.0000
E4P000

(End cutting path id: path4146)


(Start cutting path id: path4148)
(Change tool to Default tool)

E4P000
G00 X 51.7910 Y 3.5310

E4P1
G01 X 52.3837 Y 3.5310 Z 0.0000 F 400.0000
G01 X 52.3837 Y 2.3456 Z 0.0000
G01 X 51.7910 Y 2.3456 Z 0.0000
G01 X 51.7910 Y 3.5310 Z 0.0000
G01 X 51.7910 Y 3.5310 Z 0.0000
E4P000

(End cutting path id: path4148)


(Start cutting path id: path4150)
(Change tool to Default tool)

E4P000
G00 X 53.0610 Y 3.5310

E4P1
G01 X 53.6537 Y 3.5310 Z 0.0000 F 400.0000
G01 X 53.6537 Y 2.3456 Z 0.0000
G01 X 53.0610 Y 2.3456 Z 0.0000
G01 X 53.0610 Y 3.5310 Z 0.0000
G01 X 53.0610 Y 3.5310 Z 0.0000
E4P000

(End cutting path id: path4150)


(Start cutting path id: path4152)
(Change tool to Default tool)

E4P000
G00 X 54.3310 Y 3.5310

E4P1
G01 X 54.9237 Y 3.5310 Z 0.0000 F 400.0000
G01 X 54.9237 Y 2.3456 Z 0.0000
G01 X 54.3310 Y 2.3456 Z 0.0000
G01 X 54.3310 Y 3.5310 Z 0.0000
G01 X 54.3310 Y 3.5310 Z 0.0000
E4P000

(End cutting path id: path4152)


(Start cutting path id: path4154)
(Change tool to Default tool)

E4P000
G00 X 54.3310 Y 9.1190

E4P1
G01 X 54.9237 Y 9.1190 Z 0.0000 F 400.0000
G01 X 54.9237 Y 7.9336 Z 0.0000
G01 X 54.3310 Y 7.9336 Z 0.0000
G01 X 54.3310 Y 9.1190 Z 0.0000
G01 X 54.3310 Y 9.1190 Z 0.0000
E4P000

(End cutting path id: path4154)


(Start cutting path id: path4156)
(Change tool to Default tool)

E4P000
G00 X 53.0610 Y 9.1190

E4P1
G01 X 53.6537 Y 9.1190 Z 0.0000 F 400.0000
G01 X 53.6537 Y 7.9336 Z 0.0000
G01 X 53.0610 Y 7.9336 Z 0.0000
G01 X 53.0610 Y 9.1190 Z 0.0000
G01 X 53.0610 Y 9.1190 Z 0.0000
E4P000

(End cutting path id: path4156)


(Start cutting path id: path4158)
(Change tool to Default tool)

E4P000
G00 X 51.7910 Y 9.1190

E4P1
G01 X 52.3837 Y 9.1190 Z 0.0000 F 400.0000
G01 X 52.3837 Y 7.9336 Z 0.0000
G01 X 51.7910 Y 7.9336 Z 0.0000
G01 X 51.7910 Y 9.1190 Z 0.0000
G01 X 51.7910 Y 9.1190 Z 0.0000
E4P000

(End cutting path id: path4158)


(Start cutting path id: path4160)
(Change tool to Default tool)

E4P000
G00 X 50.5210 Y 9.1190

E4P1
G01 X 51.1137 Y 9.1190 Z 0.0000 F 400.0000
G01 X 51.1137 Y 7.9336 Z 0.0000
G01 X 50.5210 Y 7.9336 Z 0.0000
G01 X 50.5210 Y 9.1190 Z 0.0000
G01 X 50.5210 Y 9.1190 Z 0.0000
E4P000

(End cutting path id: path4160)


(Start cutting path id: path4162)
(Change tool to Default tool)

E4P000
G00 X 49.2510 Y 9.1190

E4P1
G01 X 49.8437 Y 9.1190 Z 0.0000 F 400.0000
G01 X 49.8437 Y 7.9336 Z 0.0000
G01 X 49.2510 Y 7.9336 Z 0.0000
G01 X 49.2510 Y 9.1190 Z 0.0000
G01 X 49.2510 Y 9.1190 Z 0.0000
E4P000

(End cutting path id: path4162)


(Start cutting path id: path4164)
(Change tool to Default tool)

E4P000
G00 X 47.9810 Y 9.1190

E4P1
G01 X 48.5737 Y 9.1190 Z 0.0000 F 400.0000
G01 X 48.5737 Y 7.9336 Z 0.0000
G01 X 47.9810 Y 7.9336 Z 0.0000
G01 X 47.9810 Y 9.1190 Z 0.0000
G01 X 47.9810 Y 9.1190 Z 0.0000
E4P000

(End cutting path id: path4164)


(Start cutting path id: path4166)
(Change tool to Default tool)

E4P000
G00 X 46.7110 Y 9.1190

E4P1
G01 X 47.3037 Y 9.1190 Z 0.0000 F 400.0000
G01 X 47.3037 Y 7.9336 Z 0.0000
G01 X 46.7110 Y 7.9336 Z 0.0000
G01 X 46.7110 Y 9.1190 Z 0.0000
G01 X 46.7110 Y 9.1190 Z 0.0000
E4P000

(End cutting path id: path4166)


(Start cutting path id: path4168)
(Change tool to Default tool)

E4P000
G00 X 45.4410 Y 9.1190

E4P1
G01 X 46.0337 Y 9.1190 Z 0.0000 F 400.0000
G01 X 46.0337 Y 7.9336 Z 0.0000
G01 X 45.4410 Y 7.9336 Z 0.0000
G01 X 45.4410 Y 9.1190 Z 0.0000
G01 X 45.4410 Y 9.1190 Z 0.0000
E4P000

(End cutting path id: path4168)





(Footer)

G00 X0.0000 Y0.0000
M2
(Using default footer. To add your own footer create file "footer" in the output dir.)
(end)
%
